src/static/logos/containership.svg

<?xml version="1.0" encoding="UTF-8"?>
<svg width="256px" height="292px" viewBox="0 0 256 292" version="1.1" xmlns="http://www.w3.org/2000/svg" xmlns:xlink="http://www.w3.org/1999/xlink" preserveAspectRatio="xMidYMid">
	<g>
		<path d="M210.978922,97.8511462 C210.46279,96.8977363 209.781783,95.9562738 208.362421,95.2394243 L188.085136,83.5308814 C187.805469,83.370812 187.505744,83.248672 187.193853,83.1676776 C187.088715,83.1437826 186.985967,83.1437826 186.87844,83.1270561 C186.670553,83.0912136 186.462667,83.0529816 186.25478,83.0553711 L186.211769,83.0529816 L186.211769,83.0625396 C185.610917,83.0727491 185.022394,83.234675 184.500888,83.5332709 L138.894919,109.865545 L138.851908,109.79147 L135.167301,111.918124 C130.731817,114.480661 125.265794,114.480661 120.83031,111.918124 L100.894724,100.410299 C99.7860692,99.7687018 99.1033938,98.5848731 99.1033938,97.303951 C99.1033938,96.0230289 99.7860692,94.8392002 100.894724,94.1976029 L120.83031,82.6945569 C125.265794,80.1320205 130.731817,80.1320205 135.167301,82.6945569 L139.970193,85.4663752 C141.07982,86.1041852 142.444815,86.1041852 143.554441,85.4663752 L162.120845,74.7470847 C163.229726,74.1067967 163.912811,72.9235894 163.912811,71.643126 C163.912811,70.3626627 163.229726,69.1794554 162.120845,68.5391674 L135.167301,52.9763633 C130.730893,50.4172764 125.266718,50.4172764 120.83031,52.9763633 L54.8084649,91.0960338 C50.0294678,93.8559046 50.0294678,100.754387 54.8084649,103.511868 L120.83031,141.631539 C125.266718,144.190626 130.730893,144.190626 135.167301,141.631539 L186.211769,112.157074 L186.211769,179.290036 L169.805472,188.788293 L135.167301,208.848133 C134.072551,209.477455 132.90064,209.961802 131.681023,210.289001 C128.016644,211.262002 124.116046,210.743927 120.832699,208.848133 L73.3700897,181.447753 C71.1514836,180.16798 69.7849203,177.801092 69.7858418,175.239836 L69.7858418,136.107018 C69.7858418,134.826247 69.1000558,133.641056 67.9937179,133.005449 L49.4297037,122.281379 C48.3203779,121.64091 46.9535806,121.641128 45.8444601,122.281954 C44.7353396,122.922779 44.0525103,124.106789 44.0533319,125.387728 L44.0533319,190.095348 C44.0533319,192.65928 45.4201251,195.024884 47.6375797,196.308045 L120.82792,238.566327 C122.979992,239.805866 125.417352,240.464611 127.900836,240.477925 L127.900836,240.482704 L127.948626,240.480315 C128.302272,240.482704 128.64636,240.444472 128.997616,240.418188 C129.270019,240.401461 129.542422,240.401461 129.810046,240.370398 C130.182807,240.317829 130.546011,240.231807 130.909215,240.155343 C131.155333,240.102774 131.41101,240.0741 131.652349,240.007194 C132.046616,239.906835 132.431325,239.758686 132.813645,239.620095 C133.026311,239.543631 133.241365,239.493452 133.444473,239.40743 C134.032289,239.16848 134.605769,238.888909 135.164912,238.566327 L198.305022,202.109747 L208.317021,196.429909 C210.559814,195.155613 211.945708,192.775233 211.946669,190.195707 L211.946669,101.442563 C211.946669,100.159402 211.602581,98.9264205 210.978922,97.8511462" fill="#00F4CB"></path>
		<path d="M134.98667,31.5388597 C132.861636,30.3124425 130.455815,29.6557871 128.002383,29.6325376 C125.547481,29.6560443 123.140185,30.3126543 121.013329,31.5388597 L32.8125697,82.4614897 C28.3897655,85.0161314 25.664974,89.7354703 25.6638617,94.8430519 L25.6638617,196.690695 C25.6630081,201.798803 28.3883263,206.519054 32.8125697,209.072257 L121.013329,259.994887 C123.169859,261.240209 125.614591,261.899859 128.104847,261.908358 C130.594829,261.900142 133.039435,261.241347 135.196366,259.99727 L223.006329,209.298633 C227.429835,206.745856 230.155039,202.026711 230.155037,196.919453 L230.155037,167.490606 C230.154218,166.212793 230.835595,165.031738 231.942214,164.392832 L250.638468,153.598283 C251.744732,152.959581 253.107756,152.959799 254.213815,153.598856 C255.319874,154.237912 256.000819,155.418653 255.999999,156.696056 L255.999999,211.509966 C255.992672,213.846794 255.411713,216.146083 254.308138,218.205923 C254.034105,219.559412 252.563854,221.153574 250.48358,222.783479 C250.435922,222.823988 250.381115,222.859732 250.331074,222.902624 C245.048179,227.005983 236.312457,231.252315 234.763571,232.145904 L135.196366,289.631047 C132.965821,290.914828 130.430374,291.573385 127.857025,291.53737 L127.857025,291.539753 L127.818899,291.53737 L127.745029,291.539753 L127.745029,291.530221 C125.377623,291.467935 123.063435,290.814228 121.013329,289.628665 L7.148708,223.889146 C2.72592163,221.335649 0.000980956984,216.61696 0,211.509966 L0,80.0285461 C0,77.7338108 0.290714125,75.3961833 1.29868195,73.4159912 C1.43689031,72.9036671 2.81659095,70.3777903 5.65939383,68.2998991 C6.73170003,67.5778796 8.62610765,66.6080382 10.4013701,65.5810072 L120.689254,1.90746503 C122.911944,0.627805594 125.437842,-0.0306235126 128.002383,0.00114290117 C130.565497,-0.0312927976 133.090034,0.6272107 135.310745,1.90746503 L237.077369,60.6579303 C237.313277,60.7985215 237.491994,60.9677076 237.687392,61.129745 L238.978926,61.8684448 C242.441283,63.7032799 247.86477,66.4984247 250.79574,68.7312045 L251.041179,68.9123051 C251.078439,68.9420376 251.116582,68.9706453 251.155558,68.9980896 C251.262789,69.0838741 251.334276,69.1696586 251.434358,69.2602089 C252.506664,70.163329 253.426464,71.2237207 254.141335,72.4104062 C254.158016,72.4247036 254.172313,72.4461498 254.188993,72.465213 L254.184227,72.4675959 C255.371206,74.4535194 255.99864,76.7236447 255.999999,79.0372585 L255.999999,127.183807 C256.000819,128.461619 255.319441,129.642674 254.212822,130.28158 L235.514185,141.076129 C234.407921,141.714831 233.044897,141.714613 231.938838,141.075557 C230.832779,140.436501 230.151835,139.255759 230.152654,137.978356 L230.152654,94.5642523 C230.152494,89.4495581 227.420161,84.7245384 222.987266,82.1731585 L134.98667,31.5364768 L134.98667,31.5388597 Z" fill="#282F37"></path>
	</g>
</svg>

<svg width="256" height="292" xmlns="http://www.w3.org/2000/svg" preserveAspectRatio="xMidYMid"><path d="M210.979 97.851c-.516-.953-1.197-1.895-2.617-2.612l-20.277-11.708c-.28-.16-.58-.282-.891-.363-.105-.024-.208-.024-.316-.04-.207-.037-.415-.075-.623-.073l-.043-.002v.01c-.601.01-1.19.172-1.711.47l-45.606 26.333-.043-.075-3.685 2.127a14.33 14.33 0 01-14.337 0l-19.935-11.508a3.589 3.589 0 010-6.212l19.935-11.503a14.33 14.33 0 0114.337 0l4.803 2.771a3.596 3.596 0 003.584 0l18.567-10.719a3.584 3.584 0 000-6.208l-26.954-15.563a14.347 14.347 0 00-14.337 0l-66.022 38.12c-4.779 2.76-4.779 9.658 0 12.416l66.022 38.12a14.347 14.347 0 0014.337 0l51.045-29.475v67.133l-16.407 9.498-34.638 20.06a14.571 14.571 0 01-3.486 1.441 14.337 14.337 0 01-10.848-1.44L73.37 181.447a7.164 7.164 0 01-3.584-6.208v-39.133a3.58 3.58 0 00-1.792-3.102L49.43 122.281a3.584 3.584 0 00-5.377 3.107v64.707a7.177 7.177 0 003.585 6.213l73.19 42.258a14.325 14.325 0 007.073 1.912v.005l.048-.003c.353.003.697-.036 1.049-.062.272-.017.544-.017.812-.048.373-.052.736-.138 1.1-.215.245-.052.501-.08.742-.148.395-.1.78-.248 1.162-.387.212-.076.427-.127.63-.213a13.95 13.95 0 001.72-.84l63.141-36.457 10.012-5.68a7.173 7.173 0 003.63-6.234v-88.753a7.15 7.15 0 00-.968-3.592" fill="#00F4CB"/><path d="M134.987 31.539a14.243 14.243 0 00-6.985-1.906c-2.455.023-4.862.68-6.989 1.906l-88.2 50.922a14.302 14.302 0 00-7.15 12.382v101.848c0 5.108 2.725 9.828 7.15 12.381l88.2 50.923a14.278 14.278 0 007.092 1.913 14.288 14.288 0 007.091-1.91l87.81-50.7a14.293 14.293 0 007.149-12.379v-29.428c0-1.278.68-2.46 1.787-3.098l18.696-10.795a3.574 3.574 0 015.362 3.098v54.814a14.274 14.274 0 01-1.692 6.696c-.274 1.353-1.744 2.948-3.824 4.577-.048.041-.103.077-.153.12-5.283 4.103-14.019 8.35-15.567 9.243l-99.568 57.485a14.312 14.312 0 01-7.339 1.906v.003l-.038-.003-.074.003v-.01a14.193 14.193 0 01-6.732-1.901L7.15 223.889A14.297 14.297 0 010 211.51V80.029c0-2.295.29-4.633 1.299-6.613.138-.512 1.518-3.038 4.36-5.116 1.073-.722 2.967-1.692 4.742-2.719L120.69 1.907a14.302 14.302 0 017.313-1.906 14.271 14.271 0 017.309 1.906l101.766 58.75c.236.142.415.31.61.473l1.292.738c3.462 1.835 8.886 4.63 11.817 6.863l.245.181c.037.03.076.059.115.086.107.086.178.172.278.262a12.699 12.699 0 012.707 3.15c.017.015.031.036.048.055l-.005.003a12.82 12.82 0 011.816 6.57v48.146c0 1.278-.68 2.459-1.787 3.098l-18.699 10.794a3.574 3.574 0 01-5.361-3.098V94.564c0-5.114-2.733-9.84-7.166-12.39l-88-50.638v.003z" fill="#282F37"/></svg>
